svg/business/tag_line.svg

<?xml version="1.0" encoding="UTF-8"?>
<svg width="24px" height="24px" viewBox="0 0 24 24" version="1.1" xmlns="http://www.w3.org/2000/svg" xmlns:xlink="http://www.w3.org/1999/xlink">
    <title>tag_line</title>
    <g id="页面-1" stroke="none" stroke-width="1" fill="none" fill-rule="evenodd">
        <g id="Business" transform="translate(-384.000000, -96.000000)">
            <g id="tag_line" transform="translate(384.000000, 96.000000)">
                <path d="M24,0 L24,24 L0,24 L0,0 L24,0 Z M12.5934901,23.257841 L12.5819402,23.2595131 L12.5108777,23.2950439 L12.4918791,23.2987469 L12.4918791,23.2987469 L12.4767152,23.2950439 L12.4056548,23.2595131 C12.3958229,23.2563662 12.3870493,23.2590235 12.3821421,23.2649074 L12.3780323,23.275831 L12.360941,23.7031097 L12.3658947,23.7234994 L12.3769048,23.7357139 L12.4804777,23.8096931 L12.4953491,23.8136134 L12.4953491,23.8136134 L12.5071152,23.8096931 L12.6106902,23.7357139 L12.6232938,23.7196733 L12.6232938,23.7196733 L12.6266527,23.7031097 L12.609561,23.275831 C12.6075724,23.2657013 12.6010112,23.2592993 12.5934901,23.257841 L12.5934901,23.257841 Z M12.8583906,23.1452862 L12.8445485,23.1473072 L12.6598443,23.2396597 L12.6498822,23.2499052 L12.6498822,23.2499052 L12.6471943,23.2611114 L12.6650943,23.6906389 L12.6699349,23.7034178 L12.6699349,23.7034178 L12.678386,23.7104931 L12.8793402,23.8032389 C12.8914285,23.8068999 12.9022333,23.8029875 12.9078286,23.7952264 L12.9118235,23.7811639 L12.8776777,23.1665331 C12.8752882,23.1545897 12.8674102,23.1470016 12.8583906,23.1452862 L12.8583906,23.1452862 Z M12.1430473,23.1473072 C12.1332178,23.1423925 12.1221763,23.1452606 12.1156365,23.1525954 L12.1099173,23.1665331 L12.0757714,23.7811639 C12.0751323,23.7926639 12.0828099,23.8018602 12.0926481,23.8045676 L12.108256,23.8032389 L12.3092106,23.7104931 L12.3186497,23.7024347 L12.3186497,23.7024347 L12.3225043,23.6906389 L12.340401,23.2611114 L12.337245,23.2485176 L12.337245,23.2485176 L12.3277531,23.2396597 L12.1430473,23.1473072 Z" id="MingCute" fill-rule="nonzero"></path>
                <path d="M10.5374,2.16431 C11.3558,2.08990077 12.1657645,2.35463284 12.7807293,2.89096713 L12.9303,3.03067 L20.7532,10.8536 C21.877936,11.97824 21.9229254,13.7738048 20.8881683,14.9522073 L20.7532,15.0962 L15.0963,20.7531 C13.97166,21.87774 12.1760952,21.9227256 10.9976927,20.8880568 L10.8537,20.7531 L3.03079,12.9302 C2.44965769,12.3490308 2.13450787,11.5573148 2.15285602,10.7415376 L2.16443,10.5372 L2.63584,5.35179 C2.76148708,3.96962417 3.81619042,2.86257507 5.17324036,2.65732594 L5.35191,2.63572 L10.5374,2.16431 Z M10.8446475,4.15262353 L10.7184,4.1561 L5.53298,4.6275 C5.0922925,4.6675675 4.73550674,4.99096826 4.64544264,5.41489006 L4.62763,5.53286 L4.15622,10.7183 C4.13318857,10.9716714 4.20762898,11.2225449 4.36152443,11.4212341 L4.44501,11.516 L12.2679,19.3389 C12.6283615,19.6993615 13.1956207,19.7270893 13.5878973,19.4220834 L13.6821,19.3389 L19.339,13.682 C19.6994615,13.3215385 19.7271893,12.7542793 19.4221834,12.3620027 L19.339,12.2678 L11.5161,4.44489 C11.3361857,4.26501 11.0958061,4.16158224 10.8446475,4.15262353 Z M7.31716,7.31801 C8.48873,6.14644 10.3882,6.14644 11.5598,7.31801 C12.7314,8.48958 12.7314,10.3891 11.5598,11.5606 C10.3882,12.7322 8.48873,12.7322 7.31716,11.5606 C6.14559,10.3891 6.14559,8.48958 7.31716,7.31801 Z M10.1456,8.73222 C9.75506,8.3417 9.1219,8.3417 8.73137,8.73222 C8.34085,9.12275 8.34085,9.75591 8.73137,10.1464 C9.1219,10.537 9.75506,10.537 10.1456,10.1464 C10.5361,9.75591 10.5361,9.12275 10.1456,8.73222 Z" id="形状" fill="#09244B"></path>
            </g>
        </g>
    </g>
</svg>

<svg xmlns="http://www.w3.org/2000/svg" width="24" height="24"><g fill="none" fill-rule="evenodd"><path d="M24 0v24H0V0zM12.593 23.258l-.011.002-.071.035-.02.004-.014-.004-.071-.035c-.01-.004-.019-.001-.024.005l-.004.01-.017.428.005.02.01.013.104.074.015.004.012-.004.104-.074.012-.016.004-.017-.017-.427c-.002-.01-.009-.017-.017-.018m.265-.113-.013.002-.185.093-.01.01-.003.011.018.43.005.012.008.007.201.093c.012.004.023 0 .029-.008l.004-.014-.034-.614c-.003-.012-.01-.02-.02-.022m-.715.002a.023.023 0 0 0-.027.006l-.006.014-.034.614c0 .012.007.02.017.024l.015-.002.201-.093.01-.008.004-.011.017-.43-.003-.012-.01-.01z"/><path fill="#09244B" d="M10.537 2.164a3 3 0 0 1 2.244.727l.15.14 7.822 7.823a3 3 0 0 1 .135 4.098l-.135.144-5.657 5.657a3 3 0 0 1-4.098.135l-.144-.135L3.03 12.93a3 3 0 0 1-.878-2.188l.011-.205.472-5.185a3 3 0 0 1 2.537-2.695l.179-.021zm.308 1.989-.127.003-5.185.472a1 1 0 0 0-.888.787l-.017.118-.472 5.185a1 1 0 0 0 .206.703l.083.095 7.823 7.823a1 1 0 0 0 1.32.083l.094-.083 5.657-5.657a1 1 0 0 0 .083-1.32l-.083-.094-7.823-7.823a1 1 0 0 0-.671-.292M7.317 7.318a3 3 0 1 1 4.243 4.243 3 3 0 0 1-4.243-4.243m2.829 1.414a1 1 0 1 0-1.415 1.414 1 1 0 0 0 1.415-1.414"/></g></svg>
